icons/line/qrcode.svg

<svg width="24" height="24" viewBox="0 0 24 24" fill="none" xmlns="http://www.w3.org/2000/svg">
<path d="M4 12H8M12 4V5M12 9V11C12 11.5523 12.4477 12 13 12H14M14 16H13C12.4477 16 12 16.4477 12 17V20M16 20H20M20 16H18M20 12H18M5 20H7C7.55228 20 8 19.5523 8 19V17C8 16.4477 7.55228 16 7 16H5C4.44772 16 4 16.4477 4 17V19C4 19.5523 4.44772 20 5 20ZM17 8H19C19.5523 8 20 7.55228 20 7V5C20 4.44772 19.5523 4 19 4H17C16.4477 4 16 4.44772 16 5V7C16 7.55228 16.4477 8 17 8ZM5 8H7C7.55228 8 8 7.55228 8 7V5C8 4.44772 7.55228 4 7 4H5C4.44772 4 4 4.44772 4 5V7C4 7.55228 4.44772 8 5 8Z" stroke="currentColor" stroke-width="2" stroke-linecap="round" stroke-linejoin="round"/>
</svg>

<svg width="24" height="24" fill="none" xmlns="http://www.w3.org/2000/svg"><path d="M4 12h4m4-8v1m0 4v2a1 1 0 001 1h1m0 4h-1a1 1 0 00-1 1v3m4 0h4m0-4h-2m2-4h-2M5 20h2a1 1 0 001-1v-2a1 1 0 00-1-1H5a1 1 0 00-1 1v2a1 1 0 001 1zM17 8h2a1 1 0 001-1V5a1 1 0 00-1-1h-2a1 1 0 00-1 1v2a1 1 0 001 1zM5 8h2a1 1 0 001-1V5a1 1 0 00-1-1H5a1 1 0 00-1 1v2a1 1 0 001 1z" stroke="currentColor" stroke-width="2" stroke-linecap="round" stroke-linejoin="round"/></svg>
